X:174
T: EIN STRAEUSSCHEN AM HUTE
N: B0662
O: Europa, Mitteleuropa, Deutschland, Thueringen; Sachsen; Brandenburg
R: Wander -, Moral - Lied, Vergaenglichkeit
M: 3/4
L: 1/8
K: G
D2 | B3AG2 | D3ED2 | D2F2A2 | A4
D2 | c3BA2 | G2F2E2 | D2B2A2 | G4
G2 | A2A2A2 | A3AA2 | A2d2c2 | B4
GA | B3AB2 | c2E2A2 | G2B2A2 | G2z2

@@@ Tune index: 2392
